X: 2097
T: the CORN CUTTER
C: By Mr BERNARD
Q: "Reel."
R: Reel.
%R: reel
B: James Kerr "Merry Melodies" v.2 p.13 #097
Z: 2016 John Chambers <jc:trillian.mit.edu>
M: C
L: 1/8
K: C
uB |\
cCCB c2(Bc) | dDD^c d2(=cd) |\
eCCe fDDf | edcB c2c ::\
uf |\
gEEg aFFa | fFDf gEEB |\
cCCc dDDf | edcB c2c :|
